packages/ui-icons/src/Basic/32/Music+video_slider_32.svg

<svg id="Ready" xmlns="http://www.w3.org/2000/svg" viewBox="0 0 90 40"><title>Megaicons_work_32_1.8_cp</title><path d="M43,19h3v2H43v3H41V21H38V19h3V16h2Zm20.21-5.66L75,18.5v3L63.24,26.66,62,25.79V14.28ZM64,24.13l9-3.91v-.4l-9-3.92ZM26.88,35.88a5,5,0,1,1,0-10,5,5,0,0,1,3,1V16.58l-14-3.5V26.88a5,5,0,1,1-5-5,5,5,0,0,1,3,1V4.76L15,3.88,31.88,8.06V30.88A5,5,0,0,1,26.88,35.88Zm-13-9a3,3,0,1,0-3,3A3,3,0,0,0,13.88,26.88Zm16,4a3,3,0,1,0-3,3A3,3,0,0,0,29.88,30.88Zm0-21.26-14-3.5V11l14,3.5ZM84,12V28a4,4,0,0,1-4,4H56a4,4,0,0,1-4-4V12a4,4,0,0,1,4-4H80A4,4,0,0,1,84,12Zm-2,0a2,2,0,0,0-2-2H56a2,2,0,0,0-2,2V28a2,2,0,0,0,2,2H80a2,2,0,0,0,2-2Z"/></svg>

<svg xmlns="http://www.w3.org/2000/svg" viewBox="0 0 90 40"><path d="M43 19h3v2h-3v3h-2v-3h-3v-2h3v-3h2Zm20.21-5.66L75 18.5v3l-11.76 5.16-1.24-.87V14.28ZM64 24.13l9-3.91v-.4l-9-3.92ZM26.88 35.88a5 5 0 1 1 0-10 5 5 0 0 1 3 1v-10.3l-14-3.5v13.8a5 5 0 1 1-5-5 5 5 0 0 1 3 1V4.76L15 3.88l16.88 4.18v22.82a5 5 0 0 1-5 5Zm-13-9a3 3 0 1 0-3 3 3 3 0 0 0 3-3Zm16 4a3 3 0 1 0-3 3 3 3 0 0 0 3-3Zm0-21.26-14-3.5V11l14 3.5ZM84 12v16a4 4 0 0 1-4 4H56a4 4 0 0 1-4-4V12a4 4 0 0 1 4-4h24a4 4 0 0 1 4 4Zm-2 0a2 2 0 0 0-2-2H56a2 2 0 0 0-2 2v16a2 2 0 0 0 2 2h24a2 2 0 0 0 2-2Z"/></svg>
